X:1
T:Title
%%score ( 1 2 ) { 3 | 4 }
L:1/8
Q:1/4=110
M:4/4
K:F
V:1 treble nm="Grand Piano, Staff 1"
V:2 treble 
V:3 bass nm="Choir Pad, Calvary (Monk)"
V:4 bass 
V:1
 A3 G F2 D2 | [DE]2 [^CE]2 D4 | [DF]2 E2 [DG]2 [DF]2 | z4 A4 | [CA]2 [CA]2 [FA]3 [FA] | %5
w: By~William~Henry~Monk,~1875 * * *|||||
 [Ec]2 [GB]2 [FA]4 | z2 .A2 z4 | [CD]2 [^CE]2 D4- | D4 z4 |] %9
w: ||||
V:2
 x8 | x8 | x8 | [B,E]2 D2 D2 ^C2 | x8 | x8 | [DG]2 D-[DB] [DA]2 D2 | x8 | x8 |] %9
V:3
 A,3 G, F,2 F,2 | A,2 A,2 A,4 | A,2 A,2 B,2 F,2 | G,2 D,E, F,2 E,2 | A,2 A,2[K:treble] C3 C | %5
 C2 C2 C4 | B,2 A,G, A,2 A,2 | B,2 A,2 F,4- | F,4 z4 |] %9
V:4
 z4 z2 D,2 | A,,2 A,,2 D,4 | D,2 C,2 B,,2 A,,2 | G,,2 B,,2 A,,4 | F,2 F,2 F,3 F, | C,2 E,2 F,4 | %6
 G,2 F,E, F,2 F,,2 | G,,2 A,,2 D,4- | D,4 z4 |] %9

